X: 5440
T: Bumper Squire Jones
R: waltz
M: 3/4
K: Dmajor
A/G/|FED d2 D|FG/A/D FDA|BEF G2 A|FED d2 e|
gf/e/d edc|ABd ABc|dcd Bec|dDD D2:|
fg|a3 dfa|bgb efg|agf efd|cec A2 d|
faf geg|faf geg|fed cBc|dDD D3:|

